X: 1
T: Snade Mill
C: Andy Hornby
R: Air
M: 4/4
L: 1/8
K: Amin
Z: ABC transcription by Verge Roller
r: 32
|: "Am" EAcA "E" B3 c | "Am" EAcA "E" BA^GA | "Am" EAcA "E" B3 c | "Dm" dcBA "E" ^GABc |
"Am" EAcA "E" B3 A | "Am" EAcA "E" BA^GA | "Am" EABc "Dm" dcBA | "E" ^GABG "Am" A4 :|
|: "Am" Ee-ef- fe-ed- | "Am" dc-cB cA-Ac | "Dm" dcBA "E" ^GABc | "Dm" dcBA "E" ^GABG |
"Am" Ee-ef- fe-ed- | "Am" dc-cB cA-Ac | "Dm" cBBA "E" ^GABc | "Dm" dcB^G "Am" A4 :|
